X: 1247
T: Ben Cherry's Mazurka
B: australian traditional tunes wiki
M:3/4
L:1/8
R: Varsovienne
Q: 1/4=100
K:F
V:1 
f>e||"Dm"d>c d<e d>c|"F"A2A2F>A|"C"B2B>c d<c|"F"A4f>e|
"Dm"d>c d<e d>c|"F"A2A2F>A|"C"G2G>A B<G|"F"F4C>F||
"F"A2A2A<c|"C"G4E>F|"C"G2G>c d<c|"F"A4C>F|
"F"A2A2A<c|"C"G4E>F|"C"G2G>A B<G|"F"F4z2||
% abcbook-tune_id 6342d53a3ac3196ddf69b621


% abcbook-boost 0
% abcbook-tablature 
% abcbook-transpose 
% abcbook-lastupdated 1665324355847
% abcbook-soundfonts 
% abcbook-repeats 1
% NFF Book 2006

